flaticon/productivity/loupe.svg

<svg xmlns="http://www.w3.org/2000/svg" width="32" height="32" viewBox="0 0 24 24">
    <path d="M 13.644531 5.910156 L 14.746094 4.808594 L 14.023438 4.089844 L 12.925781 5.1875 C 11.972656 4.394531 10.75 3.917969 9.414062 3.917969 C 8.082031 3.917969 6.859375 4.394531 5.90625 5.183594 L 4.808594 4.089844 L 4.089844 4.808594 L 5.183594 5.90625 C 4.394531 6.859375 3.917969 8.082031 3.917969 9.414062 C 3.917969 10.75 4.394531 11.972656 5.1875 12.925781 L 4.089844 14.023438 L 4.808594 14.746094 L 5.910156 13.644531 C 6.859375 14.433594 8.082031 14.910156 9.414062 14.910156 C 10.746094 14.910156 11.96875 14.433594 12.921875 13.644531 L 14.023438 14.746094 L 14.746094 14.023438 L 13.644531 12.921875 C 14.433594 11.96875 14.910156 10.746094 14.910156 9.414062 C 14.910156 8.082031 14.433594 6.859375 13.644531 5.910156 Z M 11.863281 11.140625 L 11.140625 11.863281 L 12.195312 12.917969 C 11.429688 13.523438 10.464844 13.886719 9.414062 13.886719 C 8.363281 13.886719 7.398438 13.523438 6.636719 12.917969 L 7.691406 11.863281 L 6.96875 11.140625 L 5.914062 12.199219 C 5.304688 11.433594 4.941406 10.464844 4.941406 9.414062 C 4.941406 8.363281 5.304688 7.394531 5.910156 6.632812 L 6.96875 7.691406 L 7.691406 6.96875 L 6.632812 5.910156 C 7.394531 5.304688 8.363281 4.941406 9.414062 4.941406 C 10.464844 4.941406 11.433594 5.304688 12.199219 5.914062 L 11.140625 6.96875 L 11.863281 7.691406 L 12.917969 6.636719 C 13.523438 7.398438 13.886719 8.363281 13.886719 9.414062 C 13.886719 10.464844 13.523438 11.429688 12.917969 12.195312 Z M 11.863281 11.140625"/>
    <path d="M 23.992188 20.023438 C 23.921875 18.949219 23.394531 17.960938 22.542969 17.304688 L 17.816406 13.664062 C 18.460938 12.386719 18.828125 10.945312 18.828125 9.414062 C 18.828125 4.214844 14.613281 0 9.414062 0 C 4.214844 0 0 4.214844 0 9.414062 C 0 14.613281 4.214844 18.828125 9.414062 18.828125 C 10.941406 18.828125 12.386719 18.460938 13.664062 17.816406 L 17.304688 22.542969 C 18.015625 23.46875 19.097656 24 20.265625 24 C 21.261719 24 22.199219 23.613281 22.90625 22.90625 C 23.664062 22.144531 24.0625 21.09375 23.992188 20.023438 Z M 1.019531 9.414062 C 1.019531 4.777344 4.777344 1.019531 9.414062 1.019531 C 14.046875 1.019531 17.804688 4.777344 17.804688 9.414062 C 17.804688 14.046875 14.046875 17.804688 9.414062 17.804688 C 4.777344 17.804688 1.019531 14.046875 1.019531 9.414062 Z M 22.183594 22.183594 C 21.671875 22.695312 20.988281 22.980469 20.265625 22.980469 C 19.414062 22.980469 18.628906 22.59375 18.113281 21.917969 L 14.535156 17.3125 C 15.640625 16.59375 16.585938 15.648438 17.308594 14.542969 L 21.917969 18.113281 C 22.539062 18.589844 22.921875 19.308594 22.972656 20.089844 C 23.023438 20.867188 22.734375 21.632812 22.183594 22.183594 Z M 22.183594 22.183594"/>
    <path d="M 9.039062 8.90625 L 9.796875 8.90625 L 9.796875 9.925781 L 9.039062 9.925781 Z M 9.039062 8.90625"/>
</svg>

<svg xmlns="http://www.w3.org/2000/svg" width="32" height="32" viewBox="0 0 24 24">
    <path d="M13.645 5.91l1.101-1.101-.723-.72-1.097 1.098a5.47 5.47 0 0 0-3.512-1.269 5.485 5.485 0 0 0-3.508 1.266L4.81 4.09l-.72.719 1.095 1.097a5.485 5.485 0 0 0-1.266 3.508 5.47 5.47 0 0 0 1.27 3.512L4.09 14.023l.719.723 1.101-1.101a5.485 5.485 0 0 0 7.012 0l1.101 1.101.723-.723-1.101-1.101a5.485 5.485 0 0 0 0-7.012zm-1.782 5.23l-.722.723 1.054 1.055a4.468 4.468 0 0 1-5.558 0l1.054-1.055-.722-.722-1.055 1.058a4.459 4.459 0 0 1-.973-2.785c0-1.05.364-2.02.97-2.781L6.968 7.69l.722-.722L6.633 5.91a4.46 4.46 0 0 1 2.781-.969c1.05 0 2.02.364 2.785.973L11.141 6.97l.722.722 1.055-1.054a4.468 4.468 0 0 1 0 5.559zm0 0"/>
    <path d="M23.992 20.023a3.737 3.737 0 0 0-1.449-2.718l-4.727-3.64a9.414 9.414 0 1 0-4.152 4.152l3.64 4.726A3.71 3.71 0 0 0 20.267 24c.996 0 1.933-.387 2.64-1.094a3.745 3.745 0 0 0 1.086-2.883zM1.02 9.414a8.393 8.393 0 1 1 16.784-.003 8.393 8.393 0 0 1-16.784.003zm21.164 12.77a2.702 2.702 0 0 1-1.918.796 2.686 2.686 0 0 1-2.153-1.062l-3.578-4.605a9.513 9.513 0 0 0 2.774-2.77l4.609 3.57a2.717 2.717 0 0 1 .266 4.07zm0 0"/>
    <path d="M9.04 8.906h.757v1.02h-.758zm0 0"/>
</svg>
